X: 604
T: Dûçâr-ı Hicr-i Yâr Olalı
C: Şevki Bey
O: Turkey
F: http://compmusic.upf.edu/node/140
N: ussak--sarki--aksak--ducar-i_hicr-i--sevki_bey
N: makam= ussak
N: form= sarki
N: usul= aksak = 9/8
M: 9/8
L: 1/16
K: C _2/4B   
Q: 1/4=138
%%MIDI tuningsystem comma53
z2G4A2 A8 B2 | G2 d2c2 B2A2 G2d4B2  | \
w:  Dû *  çâr_ ı   |  hicr_ *  *  *  i   | 
c3B B2BA A8-A2 | A2 g2f2 e2d2 g2f2 e2d2  | 
w:  yâr_ *  o la *  lı   |  dî  | 
c3B A4 e2f2 g2e2 ed | d6 B2c2 BAA6  | \
w:  dem_ *  *  ağ *  *  *  lı  |  yor   SAZ  | 
z2G4A2 A8 B2 | G2 d2c2 B2A2 G2d4B2  | 
w:  Dû *  çâr_ ı   |  hicr_ *  *  *  i   | 
c3B B2BA A8-A2 | A2 g2f2 e2d2 g2f2 e2d2  | \
w:  yâr_ *  o la *  lı   |  dî  | 
c3B A4 e2f2 g2e2 ed | 
w:  dem_ *  *  ağ *  *  *  lı  | 
d6 efed dcd6  | z2d4e2 e4 e2d2 c2 | d2 _7/8e2d2 g2^f2 e2d4B2  | 
w:  yor   SAZ  |  Dî *  dem  |  le  müş *  *  te *  rek   | 
c3B B2BA A8-A2 | G2 d2c2 B2A2 d2c2 B2A2  | \
w:  *  *  dil_ i  *  gam   |  dî  | 
G8 A2B2 c3B BA | 
w:  dem_ ağ *  *  *  lı  | 
A6 efed dcd6  | z2d4e2 e4 e2d2 c2 | d2 _7/8e2d2 g2^f2 e2d4B2  | 
w:  yor   SAZ  |  Dî *  dem  |  le  müş *  *  te *  rek   | 
c3B B2BA A8-A2 | G2 d2c2 B2A2 d2c2 B2A2  | \
w:  *  *  dil_ i  *  gam   |  dî  | 
G8 A2B2 c3B BA | 
w:  dem_ ağ *  *  *  lı  | 
A6 g2^f2 g2a6  | z2g4a2 a8 ^f2 | g2 ^f2_7/8e2 g2f2 e2d4B2  | \
w:  yor   SAZ  |  Bu  *  ha le   |  hem  *  *  *  de   | 
c3B B2BA A8-A2 | 
w:  meh *  veş_ i  *  nâ  | 
A2 g2f2 e2d2 g2f2 e2d2  | c3B A4 e2f2 g2e2 ed | \
w:  dî  |  dem_ *  *  ağ *  *  *  lı  | 
d6 g2^f2 g2a6  | 
w:  yor   SAZ  | 
z2g4a2 a8 ^f2 | g2 ^f2_7/8e2 g2f2 e2d4B2  | \
w:  Bu  *  ha le   |  hem  *  *  *  de   | 
c3B B2BA A8-A2 | A2 g2f2 e2d2 g2f2 e2d2  | 
w:  meh *  veş_ i  *  nâ  |  dî  | 
c3B A4 e2f2 g2e2 ed | d6 efed dcd6  | \
w:  dem_ *  *  ağ *  *  *  lı  |  yor   SAZ  | 
z2d4e2 e4 e2d2 c2 | 
w:  Dî *  dem  | 
d2 _7/8e2d2 g2^f2 e2d4B2  | c3B B2BA A8-A2 | \
w:  le  müş *  *  te *  rek   |  *  *  dil_ i  *  gam   | 
G2 d2c2 B2A2 d2c2 B2A2  | 
w:  dî  | 
G8 A2B2 c3B BA | A6 efed dcd6  | z2d4e2 e4 e2d2 c2 | 
w:  dem_ ağ *  *  *  lı  |  yor   SAZ  |  Dî *  dem  | 
d2 _7/8e2d2 g2^f2 e2d4B2  | c3B B2BA A8-A2 | \
w:  le  müş *  *  te *  rek   |  *  *  dil_ i  *  gam   | 
G2 d2c2 B2A2 d2c2 B2A2  | 
w:  dî  | 
G8 A2B2 c3B BA | A6 |
w:  dem_ ağ *  *  *  lı  |  yor    | 


